X:2161 
T:Mona's delight 
C:Traditional
O:Isle of Man
Z:Clague collection
N:See also KV154,246,277,367
B:Kiaull Vannin #161 
M:2/4 
L:1/8 
Q:220 
K:G 
D2|GFGA|B2 AG|FGAB|c2 BA|GFGB|d2 BG|(F2A2D2)|(F2A2D2)| 
GFGA|B2 AG|FGAB|c2 BA|BdBG|AcAF|G2 B2|G2:| 
Bc|dedB|g2 gf|edef|gedc|BdBG|d2 BG|(F2A2D2)|(F2A2D2)| 
dedB|g2 gf|edef|gedc|BdBG|AcAF|G2 B2|G2:| 

